X:01
T: Big Furry Hat
R: reel
M: 4/4
L: 1/8
K: Amaj

C2 |: e2 ef ecbf | eacA FADF EAcf ecBc | dcBA FEFA | (3ccc cf ecBf | eacA FADF | EAFA GABf | eaBc A2 Ac :||: eAec efga | fdfe fgaf | edec efga | fdec BFFC | eAec efga | fbaf | eaca | Bfcf dfeb | afec A2 Ac :|
